X: 77
T: No_7_Song_When_Going_for_a_Drink_of_Medicine.krn
N: Derived from No_7_Song_When_Going_for_a_Drink_of_Medicine.krn
%%abc-version 2.0
%%abcx-abcm2ps-target-version 5.9.1 (29 Sep 2008)
%%abc-creator hum2abc beta
%%abcx-conversion-date 2019/03/15 08:25:36
%%humdrum-veritas 2042058310
%%humdrum-veritas-data 2215845540
%%linebreak <none>
%%barnumbers 0
L: 1/8
M: 3/4
K: C clef=bass
[K:clef=bass][M:3/4]z4C/A,/A, | 
CC CC A,A, | 
CC CC E/D/D/C/ | 
E/D/C CC A,A, | 
A,G, G, z C/A,/A, | 
CC CC A,A, | 
CC CC E/D/D/C/ | 
E/D/C CC A,A, | 
A,G, G, z C/A,/A, | 
CC CC A,A, | 
CC/C/ CC A,A, | 
CC/C/ CC A,A, | 
C/C/C CC CA,/ z/ | 
CC/C/ CC CC | 
[M:3/8]z A,A, | 
[M:2/4]CC CC3//D// | 
[M:3/4]DA,A,2A,A, | 
CC C z C/A,/A, | 
CC CC A,A, | 
CC CC E/D/D/C/ | 
E/D/C CC A,A, | 
A,G, G, zz2 |]  



